lib/brands/icons/google-cloud-run.svg

<svg xmlns="http://www.w3.org/2000/svg" fill="none" aria-hidden="true" viewBox="0 0 48 48"><g id="google-cloud-run-Icon"><g id="Group"><path id="Vector" fill="#4285F4" d="M16.6018 7.82433C15.4496 7.84461 14.3943 8.47393 13.8288 9.47801L6.4293 22.3082C5.8569 23.3044 5.8569 24.5296 6.4293 25.5256L13.826 38.4628C14.3858 39.4809 15.4381 40.1309 16.5989 40.1757H31.3951C32.556 40.1358 33.6102 39.4884 34.171 38.4713L41.5677 25.6073C41.8559 25.1013 42 24.5379 42 23.9747C42 23.4114 41.8559 22.8481 41.5677 22.342L34.171 9.47801C33.605 8.47434 32.5501 7.84517 31.398 7.82433H16.6018Z"/><path id="Vector_2" fill="black" fill-opacity="0.07" d="M39.2578 29.6252L34.1714 38.4713C33.6107 39.4884 32.5564 40.1358 31.3956 40.1757H25.7598L17.5371 31.8794L19.9612 24.063L17.5371 16.157L20.0269 17.8295L23.3746 21.2072L21.8109 16.157L33.5356 24.0331L39.2578 29.6252Z"/><path id="Vector_3" fill="white" d="M17.5371 16.157L20.0269 17.8295L21.9786 24.104L20.0616 30.19L17.5371 31.8795L19.9759 24.0331L17.5371 16.157ZM23.9141 18.9464L25.1224 22.8547H29.7616L23.9141 18.9464ZM33.5356 24.0331L21.8109 31.8794L24.2497 24.0331L21.8109 16.1569L33.5356 24.0331Z"/></g></g></svg>

<svg xmlns="http://www.w3.org/2000/svg" fill="none" aria-hidden="true" viewBox="0 0 48 48"><path fill="#4285F4" d="M16.602 7.824a3.248 3.248 0 0 0-2.773 1.654l-7.4 12.83a3.229 3.229 0 0 0 0 3.218l7.397 12.937a3.31 3.31 0 0 0 2.773 1.713h14.796a3.3 3.3 0 0 0 2.776-1.705l7.397-12.864a3.297 3.297 0 0 0 0-3.265L34.17 9.478a3.251 3.251 0 0 0-2.773-1.654H16.602Z"/><path fill="#000" fill-opacity=".07" d="m39.257 29.625-5.086 8.846a3.3 3.3 0 0 1-2.776 1.705H25.76l-8.222-8.297 2.424-7.816-2.424-7.906 2.49 1.672 3.347 3.378-1.564-5.05 11.725 7.876 5.722 5.592Z"/><path fill="#fff" d="m17.537 16.157 2.49 1.672 1.951 6.275-1.917 6.086-2.524 1.69 2.438-7.847-2.438-7.876Zm6.377 2.79 1.208 3.908h4.64l-5.848-3.909Zm9.621 5.086L21.81 31.88l2.44-7.846-2.44-7.876 11.725 7.876Z"/></svg>
